X:056
T:Oyster Girl
M:6/8
L:1/8
K:G
B2c | ded B2 G | A2 F D3 | G2 G BGB | d2 c A3 | 
ded Bdg | f2 e c2 e | ded cBA |1 G2 B :|2 G3 G2 d || 
Bcd Bcd | e2 c e2 c | ABc ABc | d2 B d2 B | 
ded Bdg | f2 e c2 e | ded cBA |1 G3 G2 d :|2 G2 B || 

